Simply-Purple-Circles/scalable/emotes/face-wink.svg

<svg xmlns="http://www.w3.org/2000/svg" width="48" height="48" viewBox="0 0 12.7 12.7"><path d="M6.34.07a6.29 6.29 0 0 0-6.29 6.3 6.29 6.29 0 0 0 6.3 6.28 6.29 6.29 0 0 0 6.28-6.29A6.29 6.29 0 0 0 6.34.07zM6.32 1l.01.01a5.4 5.4 0 0 1 5.4 5.4 5.4 5.4 0 0 1-5.4 5.41 5.4 5.4 0 0 1-5.41-5.4A5.4 5.4 0 0 1 6.32 1zm1.95 1.91a.66 1.55 0 0 0-.65 1.55.66 1.55 0 0 0 .65 1.55.66 1.55 0 0 0 .66-1.55.66 1.55 0 0 0-.66-1.55zm-.01.45a.2.3 0 0 1 .2.3.2.3 0 0 1-.2.3.2.3 0 0 1-.2-.3.2.3 0 0 1 .2-.3zm-3.4.77c-.3-.01-.61.05-.95.22-.12.06-.25.1-.25.25 0 .14.14.33.25.25.58-.44 1.19-.32 1.8 0 .12.06.25-.11.25-.25s-.13-.2-.26-.25c-.27-.12-.55-.2-.84-.22zM3.2 6.03l-.1.33c1.93 3 4.2 3 6.75 1.93l.09-.32c-2.6.97-4.94.79-6.74-1.94zm2.24 2.99l-.06.33c.69.42 1.39.47 2.1.37l.05-.33c-.7.08-1.41.1-2.1-.37z" fill="#963996"/></svg>

<?xml version="1.0" encoding="UTF-8" standalone="no"?>
<svg
   xmlns:dc="http://purl.org/dc/elements/1.1/"
   xmlns:cc="http://creativecommons.org/ns#"
   xmlns:rdf="http://www.w3.org/1999/02/22-rdf-syntax-ns#"
   xmlns:svg="http://www.w3.org/2000/svg"
   xmlns="http://www.w3.org/2000/svg"
   xmlns:sodipodi="http://sodipodi.sourceforge.net/DTD/sodipodi-0.dtd"
   xmlns:inkscape="http://www.inkscape.org/namespaces/inkscape"
   width="48"
   height="48"
   viewBox="0 0 12.7 12.7"
   version="1.1"
   id="svg4"
   sodipodi:docname="face-wink.svg"
   inkscape:version="0.92.4 (5da689c313, 2019-01-14)">
  <metadata
     id="metadata10">
    <rdf:RDF>
      <cc:Work
         rdf:about="">
        <dc:format>image/svg+xml</dc:format>
        <dc:type
           rdf:resource="http://purl.org/dc/dcmitype/StillImage" />
        <dc:title></dc:title>
      </cc:Work>
    </rdf:RDF>
  </metadata>
  <defs
     id="defs8" />
  <sodipodi:namedview
     pagecolor="#ffffff"
     bordercolor="#666666"
     borderopacity="1"
     objecttolerance="10"
     gridtolerance="10"
     guidetolerance="10"
     inkscape:pageopacity="0"
     inkscape:pageshadow="2"
     inkscape:window-width="1087"
     inkscape:window-height="480"
     id="namedview6"
     showgrid="false"
     inkscape:zoom="4.9166667"
     inkscape:cx="2.1355932"
     inkscape:cy="24"
     inkscape:window-x="0"
     inkscape:window-y="25"
     inkscape:window-maximized="0"
     inkscape:current-layer="svg4" />
  <path
     d="M 6.34,0.07 A 6.29,6.29 0 0 0 0.05,6.37 6.29,6.29 0 0 0 6.35,12.65 6.29,6.29 0 0 0 12.63,6.36 6.29,6.29 0 0 0 6.34,0.07 Z M 6.32,1 6.33,1.01 a 5.4,5.4 0 0 1 5.4,5.4 5.4,5.4 0 0 1 -5.4,5.41 A 5.4,5.4 0 0 1 0.92,6.42 5.4,5.4 0 0 1 6.32,1 Z M 8.27,2.91 A 0.66,1.55 0 0 0 7.62,4.46 0.66,1.55 0 0 0 8.27,6.01 0.66,1.55 0 0 0 8.93,4.46 0.66,1.55 0 0 0 8.27,2.91 Z M 8.26,3.36 a 0.2,0.3 0 0 1 0.2,0.3 0.2,0.3 0 0 1 -0.2,0.3 0.2,0.3 0 0 1 -0.2,-0.3 0.2,0.3 0 0 1 0.2,-0.3 z M 4.86,4.13 C 4.56,4.12 4.25,4.18 3.91,4.35 3.79,4.41 3.66,4.45 3.66,4.6 3.66,4.74 3.8,4.93 3.91,4.85 4.49,4.41 5.1,4.53 5.71,4.85 5.83,4.91 5.96,4.74 5.96,4.6 5.96,4.46 5.83,4.4 5.7,4.35 5.43,4.23 5.15,4.15 4.86,4.13 Z M 3.2,6.03 3.1,6.36 c 1.93,3 4.2,3 6.75,1.93 L 9.94,7.97 C 7.34,8.94 5,8.76 3.2,6.03 Z M 5.44,9.02 5.38,9.35 c 0.69,0.42 1.39,0.47 2.1,0.37 L 7.53,9.39 C 6.83,9.47 6.12,9.49 5.43,9.02 Z"
     id="path2"
     inkscape:connector-curvature="0"
     style="fill:#963996" />
</svg>
